Sweet-Rainbow/icons/vscodium.svg

<?xml version="1.0" encoding="UTF-8" standalone="no"?>
<!-- Generator: Gravit.io -->

<svg
   xmlns:dc="http://purl.org/dc/elements/1.1/"
   xmlns:cc="http://creativecommons.org/ns#"
   xmlns:rdf="http://www.w3.org/1999/02/22-rdf-syntax-ns#"
   xmlns:svg="http://www.w3.org/2000/svg"
   xmlns="http://www.w3.org/2000/svg"
   xmlns:sodipodi="http://sodipodi.sourceforge.net/DTD/sodipodi-0.dtd"
   xmlns:inkscape="http://www.inkscape.org/namespaces/inkscape"
   style="isolation:isolate"
   viewBox="0 0 36 36"
   width="48"
   height="48"
   version="1.1"
   id="svg16"
   sodipodi:docname="vscodium.svg"
   inkscape:version="0.92.4 (5da689c313, 2019-01-14)">
  <metadata
     id="metadata22">
    <rdf:RDF>
      <cc:Work
         rdf:about="">
        <dc:format>image/svg+xml</dc:format>
        <dc:type
           rdf:resource="http://purl.org/dc/dcmitype/StillImage" />
        <dc:title></dc:title>
      </cc:Work>
    </rdf:RDF>
  </metadata>
  <defs
     id="defs20" />
  <sodipodi:namedview
     pagecolor="#ffffff"
     bordercolor="#666666"
     borderopacity="1"
     objecttolerance="10"
     gridtolerance="10"
     guidetolerance="10"
     inkscape:pageopacity="0"
     inkscape:pageshadow="2"
     inkscape:window-width="640"
     inkscape:window-height="480"
     id="namedview18"
     showgrid="false"
     inkscape:zoom="29.365243"
     inkscape:cx="25.325443"
     inkscape:cy="32"
     inkscape:current-layer="svg16"
     units="px" />
  <linearGradient
     id="_lgradient_0"
     x1="0"
     y1="0.5"
     x2="0.90748805"
     y2="0.92007786"
     gradientTransform="matrix(28.329,0,0,30.007,9.835,8.997)"
     gradientUnits="userSpaceOnUse">
    <stop
       offset="0%"
       stop-opacity="1"
       style="stop-color:rgb(0,196,255)"
       id="stop2" />
    <stop
       offset="83.88839793817618%"
       stop-opacity="1"
       style="stop-color:rgb(0,114,255)"
       id="stop4" />
  </linearGradient>
  <linearGradient
     id="_lgradient_1"
     x1="0"
     y1="0.5"
     x2="0.90748805"
     y2="0.92007786"
     gradientTransform="scale(48,47.7)"
     gradientUnits="userSpaceOnUse">
    <stop
       offset="0%"
       stop-opacity="1"
       style="stop-color:rgb(0,196,255)"
       id="stop9" />
    <stop
       offset="83.88839793817618%"
       stop-opacity="1"
       style="stop-color:rgb(0,114,255)"
       id="stop11" />
  </linearGradient>
  <g
     id="g831"
     transform="matrix(0.75,0,0,0.75,0,0.28155109)">
    <path
       id="path7"
       d="m 28.12,9.516 c 0.197,-0.311 0.55,-0.518 0.92,-0.519 0.519,-0.002 1.012,0.29 1.313,0.705 0.283,0.396 0.37,0.898 0.371,1.377 -0.005,0.673 -0.16,1.335 -0.345,1.979 -0.462,1.52 -1.089,2.984 -1.558,4.503 -0.516,1.723 -0.763,3.644 -0.07,5.355 0.362,-1.012 0.721,-2.026 1.082,-3.039 0.103,-0.268 0.238,-0.572 0.525,-0.682 0.399,-0.142 0.806,0.275 0.795,0.661 -0.109,0.562 -0.321,1.097 -0.488,1.644 -1.351,4.062 -2.865,8.067 -4.322,12.092 1.938,-1.771 3.882,-3.537 5.822,-5.305 0.559,-0.509 1.164,-1.063 1.335,-1.831 0.171,-0.754 -0.146,-1.502 -0.506,-2.15 -0.416,-0.773 -0.946,-1.507 -1.141,-2.377 -0.099,-0.45 -0.069,-0.969 0.235,-1.338 0.219,-0.277 0.617,-0.421 0.954,-0.285 0.332,0.127 0.533,0.446 0.69,0.747 0.527,1.058 0.856,2.214 0.969,3.39 0.36,-0.726 0.724,-1.45 1.085,-2.175 0.217,-0.428 0.41,-0.887 0.764,-1.225 0.213,-0.21 0.524,-0.343 0.825,-0.274 0.377,0.083 0.642,0.426 0.743,0.783 0.115,0.378 -0.006,0.773 -0.128,1.132 -0.364,1.007 -0.935,1.917 -1.486,2.828 -0.767,1.206 -1.583,2.384 -2.473,3.504 0.509,-0.34 1.045,-0.698 1.668,-0.769 0.589,-0.079 1.24,0.266 1.435,0.842 0.131,0.391 -0.08,0.834 -0.435,1.026 -0.52,0.29 -1.136,0.286 -1.715,0.312 -2.098,0.057 -4.143,1.091 -5.445,2.735 -1.027,1.312 -1.552,2.941 -2.595,4.242 -0.658,0.793 -1.587,1.788 -2.609,1.568 C 22.974,38.68 22.974,36.552 22.634,35.497 22.459,34.965 22.131,34.48 21.675,34.148 21.277,33.854 20.8,33.685 20.318,33.593 19.212,33.38 18.071,33.493 16.967,33.265 16.415,33.152 15.871,32.931 15.449,32.549 15.047,32.196 14.769,31.724 14.577,31.229 14.16,30.153 14.076,28.985 13.706,27.894 13.171,26.325 12.113,24.938 10.734,24.016 10.443,23.82 10.127,23.628 9.939,23.322 9.786,23.083 9.799,22.743 10,22.535 c 0.338,-0.368 0.948,-0.399 1.339,-0.094 0.8,0.567 0.915,1.67 1.661,2.287 10e-4,-1.019 -0.004,-2.036 -0.006,-3.054 0.003,-0.294 -0.03,-0.611 0.117,-0.878 0.134,-0.254 0.504,-0.322 0.719,-0.132 0.291,0.243 0.38,0.641 0.421,1.001 0.145,1.403 0.284,2.806 0.43,4.21 0.73,-0.657 1.066,-1.722 0.83,-2.678 -0.072,-0.305 -0.188,-0.619 -0.122,-0.936 0.053,-0.265 0.335,-0.452 0.601,-0.405 0.298,0.041 0.512,0.297 0.623,0.56 0.179,0.435 0.179,0.92 0.143,1.383 -0.106,1.054 -0.552,2.027 -0.859,3.03 -0.3,0.885 -0.506,1.869 -0.206,2.783 0.268,0.855 0.946,1.531 1.742,1.914 0.983,0.483 2.09,0.633 3.173,0.675 -0.658,-1.152 -1.374,-2.371 -1.362,-3.742 0.013,-1.38 0.89,-2.542 1.127,-3.874 0.404,-2.21 -0.593,-4.612 -2.449,-5.88 -0.825,-0.566 -1.815,-0.818 -2.662,-1.344 -0.766,-0.469 -1.454,-1.304 -1.334,-2.254 0.582,-0.226 1.232,-0.082 1.757,0.221 1.027,0.548 1.681,1.587 2.712,2.126 0.363,0.198 0.778,0.296 1.191,0.27 0.224,-0.535 0,-1.136 -0.36,-1.553 -0.679,-0.817 -1.824,-1.016 -2.533,-1.797 -0.356,-0.408 -0.554,-0.99 -0.405,-1.524 0.122,-0.421 0.558,-0.708 0.992,-0.676 0.643,0.04 1.197,0.443 1.636,0.886 1.455,1.454 2.292,3.431 2.62,5.44 0.388,2.371 0.086,4.789 -0.391,7.123 -0.089,0.475 -0.256,0.963 -0.133,1.448 0.053,0.225 0.216,0.457 0.464,0.477 0.343,0.022 0.626,-0.211 0.875,-0.415 0.78,-0.637 1.4,-1.495 1.656,-2.477 0.199,-0.716 0.205,-1.466 0.191,-2.203 0.004,-0.369 -0.023,-0.776 0.197,-1.095 0.158,-0.247 0.452,-0.441 0.754,-0.369 0.237,0.045 0.405,0.251 0.478,0.471 0.116,0.362 0.099,0.754 0.028,1.124 -0.223,1.021 -0.424,2.056 -0.828,3.025 -0.285,0.696 -0.67,1.358 -1.192,1.903 -0.575,0.609 -1.285,1.098 -1.748,1.808 -0.316,0.485 -0.52,1.088 -0.383,1.668 0.1,0.462 0.452,0.84 0.876,1.032 0.619,0.283 1.37,0.268 1.972,-0.05 0.479,-0.258 0.819,-0.705 1.089,-1.165 0.477,-0.826 0.766,-1.744 1.006,-2.662 0.369,-1.484 0.586,-3.005 0.671,-4.531 0.098,-1.631 -0.198,-3.316 -1.02,-4.741 -0.437,-0.762 -1.055,-1.411 -1.777,-1.908 -0.65,-0.484 -1.364,-0.902 -1.892,-1.529 -0.493,-0.58 -0.834,-1.363 -0.655,-2.133 0.338,-0.212 0.763,-0.249 1.137,-0.117 0.705,0.24 1.257,0.806 1.613,1.447 0.483,0.754 0.886,1.653 1.738,2.062 -0.693,-1.363 -1.407,-2.714 -2.109,-4.072 -0.228,-0.459 -0.453,-0.96 -0.393,-1.485 0.043,-0.4 0.415,-0.728 0.816,-0.726 0.356,10e-4 0.69,0.201 0.902,0.481 0.242,0.314 0.358,0.701 0.467,1.077 0.559,1.945 1.117,3.889 1.678,5.833 0.705,-1.342 1.003,-2.898 0.803,-4.405 -0.088,-0.799 -0.323,-1.57 -0.509,-2.35 -0.126,-0.51 -0.088,-1.081 0.203,-1.53 z"
       style="fill:url(#_lgradient_0)"
       inkscape:connector-curvature="0" />
    <path
       id="path14"
       d="m 18.81,43.32 v 0 c 1.065,0.287 1.697,1.385 1.41,2.45 v 0 c -0.287,1.065 -1.385,1.697 -2.45,1.41 v 0 C 12.67,45.81 8.16,42.79 4.95,38.6 1.74,34.41 0,29.28 0,24 0,17.64 2.53,11.53 7.03,7.03 11.53,2.53 17.64,0 24,0 30.36,0 36.47,2.53 40.97,7.03 45.47,11.53 48,17.64 48,24 c 0,5.26 -1.73,10.37 -4.91,14.55 -3.19,4.18 -7.66,7.2 -12.73,8.6 v 0 c -1.065,0.293 -2.167,-0.335 -2.46,-1.4 v 0 c -0.293,-1.065 0.335,-2.167 1.4,-2.46 v 0 C 33.52,42.13 37.25,39.61 39.91,36.13 42.56,32.64 44,28.38 44,24 44,18.7 41.89,13.61 38.14,9.86 34.39,6.11 29.3,4 24,4 18.7,4 13.61,6.11 9.86,9.86 6.11,13.61 4,18.7 4,24 c 0,4.4 1.45,8.68 4.13,12.17 2.67,3.49 6.43,6.01 10.68,7.15 z"
       style="fill:url(#_lgradient_1)"
       inkscape:connector-curvature="0" />
  </g>
</svg>

<?xml version="1.0" encoding="UTF-8" standalone="no"?><!-- Generator: Gravit.io --><svg xmlns="http://www.w3.org/2000/svg" xmlns:xlink="http://www.w3.org/1999/xlink" style="isolation:isolate" viewBox="0 0 48 48" width="48pt" height="48pt"><linearGradient id="_lgradient_0" x1="0" y1="0.5" x2="0.9074880558539661" y2="0.9200778838291643" gradientTransform="matrix(28.329,0,0,30.007,9.835,8.997)" gradientUnits="userSpaceOnUse"><stop offset="0%" stop-opacity="1" style="stop-color:rgb(0,196,255)"/><stop offset="83.88839793817618%" stop-opacity="1" style="stop-color:rgb(0,114,255)"/></linearGradient><path d=" M 28.12 9.516 C 28.317 9.205 28.67 8.998 29.04 8.997 C 29.559 8.995 30.052 9.287 30.353 9.702 C 30.636 10.098 30.723 10.6 30.724 11.079 C 30.719 11.752 30.564 12.414 30.379 13.058 C 29.917 14.578 29.29 16.042 28.821 17.561 C 28.305 19.284 28.058 21.205 28.751 22.916 C 29.113 21.904 29.472 20.89 29.833 19.877 C 29.936 19.609 30.071 19.305 30.358 19.195 C 30.757 19.053 31.164 19.47 31.153 19.856 C 31.044 20.418 30.832 20.953 30.665 21.5 C 29.314 25.562 27.8 29.567 26.343 33.592 C 28.281 31.821 30.225 30.055 32.165 28.287 C 32.724 27.778 33.329 27.224 33.5 26.456 C 33.671 25.702 33.354 24.954 32.994 24.306 C 32.578 23.533 32.048 22.799 31.853 21.929 C 31.754 21.479 31.784 20.96 32.088 20.591 C 32.307 20.314 32.705 20.17 33.042 20.306 C 33.374 20.433 33.575 20.752 33.732 21.053 C 34.259 22.111 34.588 23.267 34.701 24.443 C 35.061 23.717 35.425 22.993 35.786 22.268 C 36.003 21.84 36.196 21.381 36.55 21.043 C 36.763 20.833 37.074 20.7 37.375 20.769 C 37.752 20.852 38.017 21.195 38.118 21.552 C 38.233 21.93 38.112 22.325 37.99 22.684 C 37.626 23.691 37.055 24.601 36.504 25.512 C 35.737 26.718 34.921 27.896 34.031 29.016 C 34.54 28.676 35.076 28.318 35.699 28.247 C 36.288 28.168 36.939 28.513 37.134 29.089 C 37.265 29.48 37.054 29.923 36.699 30.115 C 36.179 30.405 35.563 30.401 34.984 30.427 C 32.886 30.484 30.841 31.518 29.539 33.162 C 28.512 34.474 27.987 36.103 26.944 37.404 C 26.286 38.197 25.357 39.192 24.335 38.972 C 22.974 38.68 22.974 36.552 22.634 35.497 C 22.459 34.965 22.131 34.48 21.675 34.148 C 21.277 33.854 20.8 33.685 20.318 33.593 C 19.212 33.38 18.071 33.493 16.967 33.265 C 16.415 33.152 15.871 32.931 15.449 32.549 C 15.047 32.196 14.769 31.724 14.577 31.229 C 14.16 30.153 14.076 28.985 13.706 27.894 C 13.171 26.325 12.113 24.938 10.734 24.016 C 10.443 23.82 10.127 23.628 9.939 23.322 C 9.786 23.083 9.799 22.743 10 22.535 C 10.338 22.167 10.948 22.136 11.339 22.441 C 12.139 23.008 12.254 24.111 13 24.728 C 13.001 23.709 12.996 22.692 12.994 21.674 C 12.997 21.38 12.964 21.063 13.111 20.796 C 13.245 20.542 13.615 20.474 13.83 20.664 C 14.121 20.907 14.21 21.305 14.251 21.665 C 14.396 23.068 14.535 24.471 14.681 25.875 C 15.411 25.218 15.747 24.153 15.511 23.197 C 15.439 22.892 15.323 22.578 15.389 22.261 C 15.442 21.996 15.724 21.809 15.99 21.856 C 16.288 21.897 16.502 22.153 16.613 22.416 C 16.792 22.851 16.792 23.336 16.756 23.799 C 16.65 24.853 16.204 25.826 15.897 26.829 C 15.597 27.714 15.391 28.698 15.691 29.612 C 15.959 30.467 16.637 31.143 17.433 31.526 C 18.416 32.009 19.523 32.159 20.606 32.201 C 19.948 31.049 19.232 29.83 19.244 28.459 C 19.257 27.079 20.134 25.917 20.371 24.585 C 20.775 22.375 19.778 19.973 17.922 18.705 C 17.097 18.139 16.107 17.887 15.26 17.361 C 14.494 16.892 13.806 16.057 13.926 15.107 C 14.508 14.881 15.158 15.025 15.683 15.328 C 16.71 15.876 17.364 16.915 18.395 17.454 C 18.758 17.652 19.173 17.75 19.586 17.724 C 19.81 17.189 19.586 16.588 19.226 16.171 C 18.547 15.354 17.402 15.155 16.693 14.374 C 16.337 13.966 16.139 13.384 16.288 12.85 C 16.41 12.429 16.846 12.142 17.28 12.174 C 17.923 12.214 18.477 12.617 18.916 13.06 C 20.371 14.514 21.208 16.491 21.536 18.5 C 21.924 20.871 21.622 23.289 21.145 25.623 C 21.056 26.098 20.889 26.586 21.012 27.071 C 21.065 27.296 21.228 27.528 21.476 27.548 C 21.819 27.57 22.102 27.337 22.351 27.133 C 23.131 26.496 23.751 25.638 24.007 24.656 C 24.206 23.94 24.212 23.19 24.198 22.453 C 24.202 22.084 24.175 21.677 24.395 21.358 C 24.553 21.111 24.847 20.917 25.149 20.989 C 25.386 21.034 25.554 21.24 25.627 21.46 C 25.743 21.822 25.726 22.214 25.655 22.584 C 25.432 23.605 25.231 24.64 24.827 25.609 C 24.542 26.305 24.157 26.967 23.635 27.512 C 23.06 28.121 22.35 28.61 21.887 29.32 C 21.571 29.805 21.367 30.408 21.504 30.988 C 21.604 31.45 21.956 31.828 22.38 32.02 C 22.999 32.303 23.75 32.288 24.352 31.97 C 24.831 31.712 25.171 31.265 25.441 30.805 C 25.918 29.979 26.207 29.061 26.447 28.143 C 26.816 26.659 27.033 25.138 27.118 23.612 C 27.216 21.981 26.92 20.296 26.098 18.871 C 25.661 18.109 25.043 17.46 24.321 16.963 C 23.671 16.479 22.957 16.061 22.429 15.434 C 21.936 14.854 21.595 14.071 21.774 13.301 C 22.112 13.089 22.537 13.052 22.911 13.184 C 23.616 13.424 24.168 13.99 24.524 14.631 C 25.007 15.385 25.41 16.284 26.262 16.693 C 25.569 15.33 24.855 13.979 24.153 12.621 C 23.925 12.162 23.7 11.661 23.76 11.136 C 23.803 10.736 24.175 10.408 24.576 10.41 C 24.932 10.411 25.266 10.611 25.478 10.891 C 25.72 11.205 25.836 11.592 25.945 11.968 C 26.504 13.913 27.062 15.857 27.623 17.801 C 28.328 16.459 28.626 14.903 28.426 13.396 C 28.338 12.597 28.103 11.826 27.917 11.046 C 27.791 10.536 27.829 9.965 28.12 9.516 L 28.12 9.516 Z " fill="url(#_lgradient_0)"/><linearGradient id="_lgradient_1" x1="0" y1="0.5" x2="0.9074880558539661" y2="0.9200778838291643" gradientTransform="matrix(48,0,0,47.7,0,0)" gradientUnits="userSpaceOnUse"><stop offset="0%" stop-opacity="1" style="stop-color:rgb(0,196,255)"/><stop offset="83.88839793817618%" stop-opacity="1" style="stop-color:rgb(0,114,255)"/></linearGradient><path d=" M 18.81 43.32 L 18.81 43.32 C 19.875 43.607 20.507 44.705 20.22 45.77 L 20.22 45.77 C 19.933 46.835 18.835 47.467 17.77 47.18 L 17.77 47.18 C 12.67 45.81 8.16 42.79 4.95 38.6 C 1.74 34.41 0 29.28 0 24 C 0 17.64 2.53 11.53 7.03 7.03 C 11.53 2.53 17.64 0 24 0 C 30.36 0 36.47 2.53 40.97 7.03 C 45.47 11.53 48 17.64 48 24 C 48 29.26 46.27 34.37 43.09 38.55 C 39.9 42.73 35.43 45.75 30.36 47.15 L 30.36 47.15 C 29.295 47.443 28.193 46.815 27.9 45.75 L 27.9 45.75 C 27.607 44.685 28.235 43.583 29.3 43.29 L 29.3 43.29 C 33.52 42.13 37.25 39.61 39.91 36.13 C 42.56 32.64 44 28.38 44 24 C 44 18.7 41.89 13.61 38.14 9.86 C 34.39 6.11 29.3 4 24 4 C 18.7 4 13.61 6.11 9.86 9.86 C 6.11 13.61 4 18.7 4 24 C 4 28.4 5.45 32.68 8.13 36.17 C 10.8 39.66 14.56 42.18 18.81 43.32 Z " fill="url(#_lgradient_1)"/></svg>
